public/static/icons/ic_email_sent.svg

<svg height="139" viewBox="0 0 120 139" width="120" xmlns="http://www.w3.org/2000/svg" xmlns:xlink="http://www.w3.org/1999/xlink"><linearGradient id="a" x1="49.662%" x2="52.228%" y1="37.111%" y2="76.847%"><stop offset="0" stop-color="#00ab55"/><stop offset="1" stop-color="#007b55"/></linearGradient><g fill="none" fill-rule="evenodd"><path d="m39.2587509 65.3868423c-.3999511.1077588-.8115314-.1291099-.9192901-.5290611-.1077588-.3999511.1291099-.8115313.529061-.9192901.583801-.1572935 1.1921728-.3209213 1.930958-.5194073.4000279-.1074736.8114392.1296886.9189127.5297164.1074736.4000279-.1296885.8114391-.5297164.9189127-.7384686.1984009-1.346515.3619412-1.9299252.5191294zm7.7263438-2.0788705c-.3998379.1081779-.8116662-.1282593-.9198441-.5280973s.1282593-.8116663.5280973-.9198442c.673278-.1821583 1.3113203-.3553733 1.9284881-.5235999.3996334-.1089314.8119066.126729.920838.5263624s-.1267291.8119066-.5263625.920838c-.6181194.168486-1.2570644.3419461-1.9312168.524341zm7.7204107-2.1290572c-.3985746.1127435-.81308-.1189683-.9258235-.517543-.1127436-.3985747.1189683-.81308.5175429-.9258236.6523479-.1845276 1.291367-.3667767 1.9195535-.5475152.3980653-.1145292.8136052.1153221.9281344.5133874.1145292.3980652-.1153221.8136051-.5133874.9281343-.630381.1813699-1.2715528.364233-1.9260199.5493601zm7.6920061-2.2596104c-.396016.1214257-.8154854-.1011737-.9369111-.4971897s.1011737-.8154854.4971897-.9369111c.6431179-.1971916 1.2776818-.3941688 1.9046727-.5912925.3951447-.124232.8161826.095386.9404147.4905306.124232.3951447-.095386.8161826-.4905307.9404147-.6304145.1982-1.2683642.3962283-1.9148353.594448zm7.6396928-2.4709137c-.3918842.1341629-.8183296-.0747614-.9524925-.4666455-.134163-.3918842.0747614-.8183296.4666455-.9524925.6337808-.2169772 1.2609674-.4350464 1.8820691-.6544419.3905632-.137961.8190168.0668136.9569778.4573768.1379609.3905632-.0668136.8190168-.4573769.9569778-.6257176.2210259-1.2574876.4406889-1.895823.6592253zm7.543931-2.756708c-.3857986.1507724-.8207754-.039754-.9715478-.4255526-.1507723-.3857986.0397541-.8207753.4255527-.9715477.531361-.2076591 1.058642-.4168713 1.5787458-.6264147.1344567-.0549898.1344567-.0549898.2674799-.1097029.3829964-.157755.821362.0248394.9791169.4078358s-.0248394.821362-.4078358.9791169c-.1351263.0555781-.1351263.0555781-.2749043.1127333-.5282669.2128414-1.0604052.4239809-1.5966074.6335319zm7.3792599-3.3428226c-.3617449.201776-.8185687.0720956-1.0203447-.2896493-.201776-.3617448-.0720955-.8185687.2896493-1.0203447.5844909-.3260204 1.1412718-.6595622 1.6730768-1.0034423.3478297-.2249164.8121321-.1252756 1.0370486.2225541.2249164.3478297.1252755.8121321-.2225541 1.0370485-.5599221.3620614-1.1446049.7123179-1.7568759 1.0538337zm6.4882183-5.1420554c-.2506565.3297638-.7211801.3938931-1.050944.1432366-.3297639-.2506564-.3938931-.7211801-.1432367-1.050944.3840399-.5052432.7001058-1.0330122.932741-1.5652123.1659035-.3795377.608071-.5527225.9876087-.386819.3795378.1659035.5527226.608071.3868191.9876087-.2821687.645518-.6593085 1.2752686-1.1129881 1.87213zm.3873309-8.3567505c.2258857.347201.1275402.8117795-.2196608 1.0376652s-.8117796.1275402-1.0376652-.2196608c-.325988-.5010647-.7144465-.9808139-1.1642757-1.4427557-.2889767-.2967581-.2826687-.7715899.0140893-1.0605666.2967581-.2889767.7715899-.2826687 1.0605666.0140893.5159965.5298908.9658625 1.0854787 1.3469458 1.6712286zm-6.4790808-5.277786c.3665966.1928206.5074698.6463179.3146491 1.0129145-.1928206.3665966-.6463179.5074699-1.0129145.3146492-.1069503-.0562531-.2156596-.112807-.3111736-.1622049-.476957-.2319751-.9582557-.4504196-1.4493617-.6581449-.3814912-.1613611-.5599419-.6014297-.3985808-.9829208.161361-.3814912.6014297-.5599419.9829208-.3985808.5151351.217889 1.02035.4471882 1.5363811.6983843.114624.0590181.2272.1175835.3380796.1759034zm-7.708929-2.7639769c.4029205.0960622.6516783.5005676.5556161.9034881s-.5005676.6516783-.9034881.5556161c-.6274347-.1495897-1.2680688-.2869692-1.9234201-.4129129-.4067702-.078172-.6731517-.4712954-.5949797-.8780656s.4712954-.6731517.8780656-.5949797c.6767094.1300482 1.3389251.2720558 1.9882062.426854zm-8.0102313-1.2535243c.41249.0377481.7162782.4027382.6785301.8152282-.0377482.4124899-.4027383.7162781-.8152283.67853-.6393364-.0585076-1.2962274-.1109318-1.9772118-.158223-.4132183-.0286961-.7249352-.3869385-.6962391-.8001569.0286961-.4132183.3869385-.7249352.8001569-.6962391.6916129.0480293 1.3593924.1013225 2.0099922.1608608zm-8.0578528-.4519335c.4139654.0143372.737928.361545.7235908.7755104-.0143372.4139653-.3615451.737928-.7755104.7235907-.2979415-.0103188-.6039983-.0206832-.9881992-.0336507-.3170879-.0048223-.6368862-.008824-.9596983-.0120237-.4141932-.0041055-.746635-.3432035-.7425295-.7573968.0041054-.4141932.3432035-.746635.7573968-.7425295.3254365.0032257.6478813.0072605.9812929.0124554.3984038.0133179.7050123.0237009 1.0036569.0340442zm-8.0033556-.0251028c.4141694-.006046.7548213.3248034.7608673.7389729.0060461.4141694-.3248033.7548213-.7389728.7608673-.6399319.0093417-1.3007246.0207493-1.9960091.0343236-.4141346.0080853-.7564116-.3210827-.7644969-.7352173-.0080853-.4141347.3210827-.7564116.7352173-.7644969.6976538-.0136206 1.3608914-.0250704 2.0033942-.0344496zm-8.0062894.1740796c.4140887-.0101721.75802.317267.768192.7313556.0101721.4140887-.3172669.75802-.7313556.7681921-.7833902.019244-1.402186.0340862-2.0004886.0478476-.4141041.0095247-.757523-.3184517-.7670477-.7325557-.0095247-.4141041.3184517-.757523.7325557-.7670477.597399-.0137406 1.2154696-.0285654 1.9981442-.0477919zm-7.985886.1496273c.4141983-.0035529.7528526.329341.7564336.7435394.0035247.4141983-.3293692.7528525-.7435675.7564054-.4191264.0035952-.8309868.0061768-1.2341167.0077055-.2511094.0018785-.504497.0046031-.7622332.0081601-.4141741.0057161-.7545623-.3254046-.7602784-.7395787-.005716-.4141741.3254047-.7545624.7395788-.7602784.2608418-.0035999.5173849-.0063584.7744688-.0082766.4034608-.001535.8129374-.0041017 1.2297146-.0076767zm-8.0110595.1710739c.4140872-.0102303.7580644.3171604.7682947.7312476s-.3171605.7580645-.7312477.7682948c-.7345229.0181468-1.385738.0299796-2.0114361.0357036-.4141962.0037891-.7530403-.3289115-.7568615-.7431078-.0037571-.4141962.3289436-.7530403.7431398-.7568294.6172143-.0056464 1.2608583-.0173416 1.9881108-.0353088zm-7.9208056-.1604208c.4127646.0346164.7193142.3972903.6846978.8100549-.0346164.4127645-.3972904.7193142-.8100549.6846977-.670928-.0562672-1.3419231-.1250563-2.0177667-.2073545-.4111762-.0500694-.7039112-.4239829-.6538418-.8351591.0500694-.4111763.4239829-.7039113.8351592-.6538419.6570965.0800154 1.309438.1468921 1.9618064.2016029zm-7.7889218-1.229354c.4038503.0920749.6565943.4941017.5645194.897952s-.4941017.6565943-.897952.5645194c-.6115514-.1394292-1.2328595-.2901034-1.8652012-.4524853-.0541905-.0139873-.0541905-.0139873-.1058498-.0276032-.4004011-.1060749-.6389995-.5166548-.5329245-.9170558.106075-.4004011.5166549-.6389995.9170559-.5329245.0460296.0121324.0460296.0121324.0948309.0247286.6192169.1590116 1.2273079.3064806 1.8255213.4428688zm-6.98726917-3.0589699c.32282096.2595371.37412266.7316316.11458556 1.0544525-.2595371.322821-.73163158.3741227-1.05445254.1145856-.54699549-.4397658-1.06398806-.9152067-1.54556905-1.4214859-.28548117-.3001222-.2736122-.7748476.02651007-1.0603288s.77484766-.2736122 1.06032883.0265101c.43557219.4579108.9034559.8881898 1.39859713 1.2862665zm-4.35949075-6.1766334c.12728315.3941724-.08907332.8168956-.48324571.9441788-.39417239.1272831-.81689563-.0890734-.94417879-.4832458-.21992063-.6810535-.38124793-1.3734468-.48141306-2.0719462-.05879695-.4100193.22592499-.7900699.63594425-.8488669.41001926-.0587969.79006989.225925.84886684.6359443.08798757.6135794.22999624 1.22306.42402647 1.8239358zm.1965193-7.33602718c-.13810045.39051398-.56662709.59513548-.95714104.45703508-.39051394-.1381005-.5951355-.56662714-.45703504-.95714108.23001611-.65042868.50709869-1.29223422.82979073-1.92661026.18780009-.36919372.63933278-.51624232 1.0085265-.32844223.36919372.18780008.51624232.63933278.32844223 1.0085265-.29356956.57712453-.54475477 1.1589441-.75258338 1.74663199zm4.14986091-6.4613319c-.28208289.30331851-.75664449.32053339-1.059963.0384505s-.32053339-.75664449-.0384505-1.059963c.45137011-.48534994.92976055-.96867103 1.43705071-1.45373245.29937894-.28626059.77413358-.27562606 1.06039417.02375289.28626058.29937894.27562605.77413358-.02375289 1.06039417-.48670117.46537462-.94453271.92792492-1.37527849 1.39109789z" fill="#00ab55" opacity=".481" transform="translate(25 73)"/><path d="m118.932955.28622222c.760227.19081482.9375 1.11081482.743181 1.77185185-.436363 1.94222223-1.193181 3.79585186-1.789772 5.69377778-8.301137 25.91333335-16.602273 51.82666665-24.9034095 77.74000005-.1840909 1.0222222-1.2579545 1.782074-2.2704545 1.5605925-10.5579545-8.6309629-21.1431818-17.238074-31.7215909-25.8451851-4.7931818 5.0191111-9.5147727 10.1268148-14.7170455 14.7268148-1.3295454 1.0903703-2.6522727 2.242074-4.2306818 2.9508148-.4227273.1294815-1.1795454.3782222-1.3738636-.1942222-.0579546-1.0358519.2045454-2.0546667.3102273-3.0768889 1.2715909-9.9155556 2.5602272-19.8311111 3.9136363-29.7364445-13.6193182-2.0137777-27.2352273-4.0241481-40.85454544-6.0242963-.72613636-.1226666-1.69090909-.2555555-1.95340909-1.0699259-.14318182-1.029037.86590909-1.656 1.71136364-1.9217778 5.56704545-1.5912592 11.04886359-3.4585185 16.57840909-5.1758518 32.625-10.3619259 65.2534091-20.7170371 97.878409-31.07896298.8625-.24874074 1.776136-.54518519 2.679546-.3202963z" fill="url(#a)" fill-rule="nonzero"/><path d="m51.6238636 55.217037c2.1204546 1.7343704 4.2238637 3.4925926 6.3818182 5.1792593-4.9738636 5.704-10.2852273 11.1626667-16.0295454 16.1034074 3.5761363-6.9238518 6.6681818-14.0862222 9.6477272-21.2826667zm60.0852274-49.23362959c-8.522727 6.85570369-17.209091 13.51718519-25.796591 20.29792589-10.8170455 8.4810371-21.6306818 16.9654815-32.4511364 25.4431111-.9477272.7598519-2.0113636 1.3902223-2.8465909 2.282963-.8829545.9677037-1.1897727 2.2761482-1.6670454 3.4619259-1.2920455 3.2983704-2.7306818 6.5422223-4.0840909 9.8201482-1.3022728 3.1314074-2.6829546 6.2491852-4.4965909 9.1284444.48-3.9675852.9905454-7.9308089 1.5115636-11.892506l1.5744-11.883347.7731273-5.9435544c.0852272-.4634074.0375-1.0562963.5420454-1.2948148 10.7079546-6.1605926 21.3034091-12.5358518 31.9636364-18.785037 11.6590909-6.8761482 23.3181818-13.7557037 34.9772728-20.63525929z" fill="#007b55"/></g></svg>

<svg xmlns="http://www.w3.org/2000/svg" width="120" height="139" viewBox="0 0 120 139">
  <defs>
    <linearGradient id="ic_email_sent-a" x1="49.662%" x2="52.228%" y1="37.111%" y2="76.847%">
      <stop offset="0%" stop-color="#00AB55"/>
      <stop offset="100%" stop-color="#007B55"/>
    </linearGradient>
  </defs>
  <g fill="none" fill-rule="evenodd">
    <path fill="#00AB55" d="M39.2587509,65.3868423 C38.8587998,65.4946011 38.4472195,65.2577324 38.3394608,64.8577812 C38.231702,64.4578301 38.4685707,64.0462499 38.8685218,63.9384911 C39.4523228,63.7811976 40.0606946,63.6175698 40.7994798,63.4190838 C41.1995077,63.3116102 41.610919,63.5487724 41.7183925,63.9488002 C41.8258661,64.3488281 41.588704,64.7602393 41.1886761,64.8677129 C40.4502075,65.0661138 39.8421611,65.2296541 39.2587509,65.3868423 Z M46.9850947,63.3079718 C46.5852568,63.4161497 46.1734285,63.1797125 46.0652506,62.7798745 C45.9570727,62.3800365 46.1935099,61.9682082 46.5933479,61.8600303 C47.2666259,61.677872 47.9046682,61.504657 48.521836,61.3364304 C48.9214694,61.227499 49.3337426,61.4631594 49.442674,61.8627928 C49.5516054,62.2624262 49.3159449,62.6746994 48.9163115,62.7836308 C48.2981921,62.9521168 47.6592471,63.1255769 46.9850947,63.3079718 Z M54.7055054,61.1789146 C54.3069308,61.2916581 53.8924254,61.0599463 53.7796819,60.6613716 C53.6669383,60.2627969 53.8986502,59.8482916 54.2972248,59.735548 C54.9495727,59.5510204 55.5885918,59.3687713 56.2167783,59.1880328 C56.6148436,59.0735036 57.0303835,59.3033549 57.1449127,59.7014202 C57.2594419,60.0994854 57.0295906,60.5150253 56.6315253,60.6295545 C56.0011443,60.8109244 55.3599725,60.9937875 54.7055054,61.1789146 Z M62.3975115,58.9193042 C62.0014955,59.0407299 61.5820261,58.8181305 61.4606004,58.4221145 C61.3391747,58.0260985 61.5617741,57.6066291 61.9577901,57.4852034 C62.600908,57.2880118 63.2354719,57.0910346 63.8624628,56.8939109 C64.2576075,56.7696789 64.6786454,56.9892969 64.8028775,57.3844415 C64.9271095,57.7795862 64.7074915,58.2006241 64.3123468,58.3248562 C63.6819323,58.5230562 63.0439826,58.7210845 62.3975115,58.9193042 Z M70.0372043,56.4483905 C69.6453201,56.5825534 69.2188747,56.3736291 69.0847118,55.981745 C68.9505488,55.5898608 69.1594732,55.1634154 69.5513573,55.0292525 C70.1851381,54.8122753 70.8123247,54.5942061 71.4334264,54.3748106 C71.8239896,54.2368496 72.2524432,54.4416242 72.3904042,54.8321874 C72.5283651,55.2227506 72.3235906,55.6512042 71.9330273,55.7891652 C71.3073097,56.0101911 70.6755397,56.2298541 70.0372043,56.4483905 Z M77.5811353,53.6916825 C77.1953367,53.8424549 76.7603599,53.6519285 76.6095875,53.2661299 C76.4588152,52.8803313 76.6493416,52.4453546 77.0351402,52.2945822 C77.5665012,52.0869231 78.0937822,51.8777109 78.613886,51.6681675 C78.7483427,51.6131777 78.7483427,51.6131777 78.8813659,51.5584646 C79.2643623,51.4007096 79.7027279,51.583304 79.8604828,51.9663004 C80.0182377,52.3492968 79.8356434,52.7876624 79.452647,52.9454173 C79.3175207,53.0009954 79.3175207,53.0009954 79.1777427,53.0581506 C78.6494758,53.270992 78.1173375,53.4821315 77.5811353,53.6916825 Z M84.9603952,50.3488599 C84.5986503,50.5506359 84.1418265,50.4209555 83.9400505,50.0592106 C83.7382745,49.6974658 83.867955,49.2406419 84.2296998,49.0388659 C84.8141907,48.7128455 85.3709716,48.3793037 85.9027766,48.0354236 C86.2506063,47.8105072 86.7149087,47.910148 86.9398252,48.2579777 C87.1647416,48.6058074 87.0651007,49.0701098 86.7172711,49.2950262 C86.157349,49.6570876 85.5726662,50.0073441 84.9603952,50.3488599 Z M91.4486135,45.2068045 C91.197957,45.5365683 90.7274334,45.6006976 90.3976695,45.3500411 C90.0679056,45.0993847 90.0037764,44.628861 90.2544328,44.2990971 C90.6384727,43.7938539 90.9545386,43.2660849 91.1871738,42.7338848 C91.3530773,42.3543471 91.7952448,42.1811623 92.1747825,42.3470658 C92.5543203,42.5129693 92.7275051,42.9551368 92.5616016,43.3346745 C92.2794329,43.9801925 91.9022931,44.6099431 91.4486135,45.2068045 Z M91.8359444,36.850054 C92.0618301,37.197255 91.9634846,37.6618335 91.6162836,37.8877192 C91.2690826,38.1136049 90.804504,38.0152594 90.5786184,37.6680584 C90.2526304,37.1669937 89.8641719,36.6872445 89.4143427,36.2253027 C89.125366,35.9285446 89.131674,35.4537128 89.428432,35.1647361 C89.7251901,34.8757594 90.2000219,34.8820674 90.4889986,35.1788254 C91.0049951,35.7087162 91.4548611,36.2643041 91.8359444,36.850054 Z M85.3568636,31.572268 C85.7234602,31.7650886 85.8643334,32.2185859 85.6715127,32.5851825 C85.4786921,32.9517791 85.0251948,33.0926524 84.6585982,32.8998317 C84.5516479,32.8435786 84.4429386,32.7870247 84.3474246,32.7376268 C83.8704676,32.5056517 83.3891689,32.2872072 82.8980629,32.0794819 C82.5165717,31.9181208 82.338121,31.4780522 82.4994821,31.0965611 C82.6608431,30.7150699 83.1009118,30.5366192 83.4824029,30.6979803 C83.997538,30.9158693 84.5027529,31.1451685 85.018784,31.3963646 C85.133408,31.4553827 85.245984,31.5139481 85.3568636,31.572268 Z M77.6479346,28.8082911 C78.0508551,28.9043533 78.2996129,29.3088587 78.2035507,29.7117792 C78.1074885,30.1146997 77.7029831,30.3634575 77.3000626,30.2673953 C76.6726279,30.1178056 76.0319938,29.9804261 75.3766425,29.8544824 C74.9698723,29.7763104 74.7034908,29.383187 74.7816628,28.9764168 C74.8598348,28.5696466 75.2529582,28.3032651 75.6597284,28.3814371 C76.3364378,28.5114853 76.9986535,28.6534929 77.6479346,28.8082911 Z M69.6377033,27.5547668 C70.0501933,27.5925149 70.3539815,27.957505 70.3162334,28.369995 C70.2784852,28.7824849 69.9134951,29.0862731 69.5010051,29.048525 C68.8616687,28.9900174 68.2047777,28.9375932 67.5237933,28.890302 C67.110575,28.8616059 66.7988581,28.5033635 66.8275542,28.0901451 C66.8562503,27.6769268 67.2144927,27.3652099 67.6277111,27.393906 C68.319324,27.4419353 68.9871035,27.4952285 69.6377033,27.5547668 Z M61.5798505,27.1028333 C61.9938159,27.1171705 62.3177785,27.4643783 62.3034413,27.8783437 C62.2891041,28.292309 61.9418962,28.6162717 61.5279309,28.6019344 C61.2299894,28.5916156 60.9239326,28.5812512 60.5397317,28.5682837 C60.2226438,28.5634614 59.9028455,28.5594597 59.5800334,28.55626 C59.1658402,28.5521545 58.8333984,28.2130565 58.8375039,27.7988632 C58.8416093,27.38467 59.1807074,27.0522282 59.5949007,27.0563337 C59.9203372,27.0595594 60.242782,27.0635942 60.5761936,27.0687891 C60.9745974,27.082107 61.2812059,27.09249 61.5798505,27.1028333 Z M53.5764949,27.0777305 C53.9906643,27.0716845 54.3313162,27.4025339 54.3373622,27.8167034 C54.3434083,28.2308728 54.0125589,28.5715247 53.5983894,28.5775707 C52.9584575,28.5869124 52.2976648,28.59832 51.6023803,28.6118943 C51.1882457,28.6199796 50.8459687,28.2908116 50.8378834,27.876677 C50.8297981,27.4625423 51.1589661,27.1202654 51.5731007,27.1121801 C52.2707545,27.0985595 52.9339921,27.0871097 53.5764949,27.0777305 Z M45.5702055,27.2518101 C45.9842942,27.241638 46.3282255,27.5690771 46.3383975,27.9831657 C46.3485696,28.3972544 46.0211306,28.7411857 45.6070419,28.7513578 C44.8236517,28.7706018 44.2048559,28.785444 43.6065533,28.7992054 C43.1924492,28.8087301 42.8490303,28.4807537 42.8395056,28.0666497 C42.8299809,27.6525456 43.1579573,27.3091267 43.5720613,27.299602 C44.1694603,27.2858614 44.7875309,27.2710366 45.5702055,27.2518101 Z M37.5843195,27.4014374 C37.9985178,27.3978845 38.3371721,27.7307784 38.3407531,28.1449768 C38.3442778,28.5591751 38.0113839,28.8978293 37.5971856,28.9013822 C37.1780592,28.9049774 36.7661988,28.907559 36.3630689,28.9090877 C36.1119595,28.9109662 35.8585719,28.9136908 35.6008357,28.9172478 C35.1866616,28.9229639 34.8462734,28.5918432 34.8405573,28.1776691 C34.8348413,27.763495 35.165962,27.4231067 35.5801361,27.4173907 C35.8409779,27.4137908 36.097521,27.4110323 36.3546049,27.4091141 C36.7580657,27.4075791 37.1675423,27.4050124 37.5843195,27.4014374 Z M29.57326,27.5725113 C29.9873472,27.562281 30.3313244,27.8896717 30.3415547,28.3037589 C30.351785,28.7178461 30.0243942,29.0618234 29.610307,29.0720537 C28.8757841,29.0902005 28.224569,29.1020333 27.5988709,29.1077573 C27.1846747,29.1115464 26.8458306,28.7788458 26.8420094,28.3646495 C26.8382523,27.9504533 27.170953,27.6116092 27.5851492,27.6078201 C28.2023635,27.6021737 28.8460075,27.5904785 29.57326,27.5725113 Z M21.6524544,27.4120905 C22.065219,27.4467069 22.3717686,27.8093808 22.3371522,28.2221454 C22.3025358,28.6349099 21.9398618,28.9414596 21.5270973,28.9068431 C20.8561693,28.8505759 20.1851742,28.7817868 19.5093306,28.6994886 C19.0981544,28.6494192 18.8054194,28.2755057 18.8554888,27.8643295 C18.9055582,27.4531532 19.2794717,27.1604182 19.690648,27.2104876 C20.3477445,27.290503 21.000086,27.3573797 21.6524544,27.4120905 Z M13.8635326,26.1827365 C14.2673829,26.2748114 14.5201269,26.6768382 14.428052,27.0806885 C14.3359771,27.4845388 13.9339503,27.7372828 13.5301,27.6452079 C12.9185486,27.5057787 12.2972405,27.3551045 11.6648988,27.1927226 C11.6107083,27.1787353 11.6107083,27.1787353 11.559049,27.1651194 C11.1586479,27.0590445 10.9200495,26.6484646 11.0261245,26.2480636 C11.1321995,25.8476625 11.5427794,25.6090641 11.9431804,25.7151391 C11.98921,25.7272715 11.98921,25.7272715 12.0380113,25.7398677 C12.6572282,25.8988793 13.2653192,26.0463483 13.8635326,26.1827365 Z M6.87626343,23.1237666 C7.19908439,23.3833037 7.25038609,23.8553982 6.99084899,24.1782191 C6.73131189,24.5010401 6.25921741,24.5523418 5.93639645,24.2928047 C5.38940096,23.8530389 4.87240839,23.377598 4.3908274,22.8713188 C4.10534623,22.5711966 4.1172152,22.0964712 4.41733747,21.81099 C4.71745974,21.5255088 5.19218513,21.5373778 5.4776663,21.8375001 C5.91323849,22.2954109 6.3811222,22.7256899 6.87626343,23.1237666 Z M2.51677268,16.9471332 C2.64405583,17.3413056 2.42769936,17.7640288 2.03352697,17.891312 C1.63935458,18.0185951 1.21663134,17.8022386 1.08934818,17.4080662 C0.869427545,16.7270127 0.70810025,16.0346194 0.607935119,15.33612 C0.54913817,14.9261007 0.833860109,14.5460501 1.24387937,14.4872531 C1.65389863,14.4284562 2.03394926,14.7131781 2.09274621,15.1231974 C2.18073378,15.7367768 2.32274245,16.3462574 2.51677268,16.9471332 Z M2.71329198,9.61110602 C2.57519153,10.00162 2.14666489,10.2062415 1.75615094,10.0681411 C1.365637,9.9300406 1.16101544,9.50151396 1.2991159,9.11100002 C1.52913201,8.46057134 1.80621459,7.8187658 2.12890663,7.18438976 C2.31670672,6.81519604 2.76823941,6.66814744 3.13743313,6.85594753 C3.50662685,7.04374761 3.65367545,7.49528031 3.46587536,7.86447403 C3.1723058,8.44159856 2.92112059,9.02341813 2.71329198,9.61110602 Z M6.86315289,3.14977412 C6.58107,3.45309263 6.1065084,3.47030751 5.80318989,3.18822462 C5.49987138,2.90614173 5.4826565,2.43158013 5.76473939,2.12826162 C6.2161095,1.64291168 6.69449994,1.15959059 7.2017901,0.674529168 C7.50116904,0.388268582 7.97592368,0.398903113 8.26218427,0.698282057 C8.54844485,0.997661002 8.53781032,1.47241564 8.23843138,1.75867623 C7.75173021,2.22405085 7.29389867,2.68660115 6.86315289,3.14977412 Z" opacity=".481" transform="translate(25 73)"/>
    <path fill="url(#ic_email_sent-a)" fill-rule="nonzero" d="M118.932955,0.286222222 C119.693182,0.477037037 119.870455,1.39703704 119.676136,2.05807407 C119.239773,4.0002963 118.482955,5.85392593 117.886364,7.75185185 C109.585227,33.6651852 101.284091,59.5785185 92.9829545,85.4918519 C92.7988636,86.5140741 91.725,87.2739259 90.7125,87.0524444 C80.1545455,78.4214815 69.5693182,69.8143704 58.9909091,61.2072593 C54.1977273,66.2263704 49.4761364,71.3340741 44.2738636,75.9340741 C42.9443182,77.0244444 41.6215909,78.1761481 40.0431818,78.8848889 C39.6204545,79.0143704 38.8636364,79.2631111 38.6693182,78.6906667 C38.6113636,77.6548148 38.8738636,76.636 38.9795455,75.6137778 C40.2511364,65.6982222 41.5397727,55.7826667 42.8931818,45.8773333 C29.2738636,43.8635556 15.6579545,41.8531852 2.03863636,39.853037 C1.3125,39.7303704 0.347727273,39.5974815 0.0852272727,38.7831111 C-0.0579545455,37.7540741 0.951136364,37.1271111 1.79659091,36.8613333 C7.36363636,35.2700741 12.8454545,33.4028148 18.375,31.6854815 C51,21.3235556 83.6284091,10.9684444 116.253409,0.606518519 C117.115909,0.357777778 118.029545,0.0613333333 118.932955,0.286222222 Z"/>
    <path fill="#007B55" d="M51.6238636,55.217037 C53.7443182,56.9514074 55.8477273,58.7096296 58.0056818,60.3962963 C53.0318182,66.1002963 47.7204545,71.558963 41.9761364,76.4997037 C45.5522727,69.5758519 48.6443182,62.4134815 51.6238636,55.217037 Z M111.709091,5.98340741 C103.186364,12.8391111 94.5,19.5005926 85.9125,26.2813333 C75.0954545,34.7623704 64.2818182,43.2468148 53.4613636,51.7244444 C52.5136364,52.4842963 51.45,53.1146667 50.6147727,54.0074074 C49.7318182,54.9751111 49.425,56.2835556 48.9477273,57.4693333 C47.6556818,60.7677037 46.2170455,64.0115556 44.8636364,67.2894815 C43.5613636,70.4208889 42.1806818,73.5386667 40.3670455,76.4179259 C40.8470455,72.4503407 41.3575909,68.487117 41.8786091,64.5254199 L43.4530091,52.6420729 L43.4530091,52.6420729 L44.2261364,46.6985185 C44.3113636,46.2351111 44.2636364,45.6422222 44.7681818,45.4037037 C55.4761364,39.2431111 66.0715909,32.8678519 76.7318182,26.6186667 C88.3909091,19.7425185 100.05,12.862963 111.709091,5.98340741 Z"/>
  </g>
</svg>
